X: 42346
T: Weeping Cloud, The
R: reel
M: 4/4
K: Edorian
EF|GBEG BAGF|GFGA BDAG|(3FED AD BDAD|BGGF GFEF|
GBEG BAGF|GFGA BDAG|BGGA GFEF|(3GFE FD EEBD:|
EBBF GEEG|FDDF DDBA|GBEG BAGF|GEEF EEBD|
EBBF GEEG|FDDF DDBA|BGGA GFEF|(3GFE FD EEBD:|

